resources/dark/compress.svg

<svg fill="none" height="16" viewBox="0 0 16 16" width="16" xmlns="http://www.w3.org/2000/svg" xmlns:xlink="http://www.w3.org/1999/xlink"><linearGradient id="a" gradientUnits="userSpaceOnUse" x1="8" x2="8" y1="2" y2="14"><stop offset="0" stop-color="#5d7bf4"/><stop offset="1" stop-color="#a166f7"/></linearGradient><path d="m13.6786 6.28571h-3.3215c-.3562 0-.64281-.2866-.64281-.64285v-3.32143c0-.17679.14464-.32143.32141-.32143h1.0714c.1768 0 .3215.14464.3215.32143v2.25h2.25c.1768 0 .3214.14464.3214.32143v1.07143c0 .17678-.1446.32142-.3214.32142zm-7.39289-.64285v-3.32143c0-.17679-.14464-.32143-.32142-.32143h-1.07143c-.17679 0-.32143.14464-.32143.32143v2.25h-2.25c-.17679 0-.32143.14464-.32143.32143v1.07143c0 .17678.14464.32142.32143.32142h3.32143c.35625 0 .64285-.2866.64285-.64285zm0 8.03574v-3.3215c0-.3562-.2866-.64281-.64285-.64281h-3.32143c-.17679 0-.32143.14464-.32143.32141v1.0714c0 .1768.14464.3215.32143.3215h2.25v2.25c0 .1768.14464.3214.32143.3214h1.07143c.17678 0 .32142-.1446.32142-.3214zm5.14289 0v-2.25h2.25c.1768 0 .3214-.1447.3214-.3215v-1.0714c0-.17677-.1446-.32141-.3214-.32141h-3.3215c-.3562 0-.64281.28661-.64281.64281v3.3215c0 .1768.14464.3214.32141.3214h1.0714c.1768 0 .3215-.1446.3215-.3214z" fill="url(#a)"/></svg>

<svg width="16" height="16" viewBox="0 0 16 16" fill="none" xmlns="http://www.w3.org/2000/svg">
<path d="M13.6786 6.28571H10.3571C10.0009 6.28571 9.71429 5.99911 9.71429 5.64286V2.32143C9.71429 2.14464 9.85893 2 10.0357 2H11.1071C11.2839 2 11.4286 2.14464 11.4286 2.32143V4.57143H13.6786C13.8554 4.57143 14 4.71607 14 4.89286V5.96429C14 6.14107 13.8554 6.28571 13.6786 6.28571ZM6.28571 5.64286V2.32143C6.28571 2.14464 6.14107 2 5.96429 2H4.89286C4.71607 2 4.57143 2.14464 4.57143 2.32143V4.57143H2.32143C2.14464 4.57143 2 4.71607 2 4.89286V5.96429C2 6.14107 2.14464 6.28571 2.32143 6.28571H5.64286C5.99911 6.28571 6.28571 5.99911 6.28571 5.64286ZM6.28571 13.6786V10.3571C6.28571 10.0009 5.99911 9.71429 5.64286 9.71429H2.32143C2.14464 9.71429 2 9.85893 2 10.0357V11.1071C2 11.2839 2.14464 11.4286 2.32143 11.4286H4.57143V13.6786C4.57143 13.8554 4.71607 14 4.89286 14H5.96429C6.14107 14 6.28571 13.8554 6.28571 13.6786ZM11.4286 13.6786V11.4286H13.6786C13.8554 11.4286 14 11.2839 14 11.1071V10.0357C14 9.85893 13.8554 9.71429 13.6786 9.71429H10.3571C10.0009 9.71429 9.71429 10.0009 9.71429 10.3571V13.6786C9.71429 13.8554 9.85893 14 10.0357 14H11.1071C11.2839 14 11.4286 13.8554 11.4286 13.6786Z" fill="url(#paint0_linear)"/>
<defs>
<linearGradient id="paint0_linear" x1="8" y1="2" x2="8" y2="14" gradientUnits="userSpaceOnUse">
<stop stop-color="#5D7BF4"/>
<stop offset="1" stop-color="#A166F7"/>
</linearGradient>
</defs>
</svg>
